X: 11248
T: Dusty Miller, The
R: slip jig
M: 9/8
K: Dmajor
A3 A2G A2G|A3 A2G B2d|A3 A2G A2=c|B2G G2A B2 d:|
A2D D3 A3|A2D D3 B2d|A2D D3 G2A|B2G G2A B2 d:|

